X:22
T: Reel des Jeunes Maries  Harmony for B Part
M: 4/4
L: 1/8
K: D
P:B Harmony 1
|: fdAF DFAd | ecAG GAcd | ecAG GAce | d2Ad cGAc |
fdAF DFAd | ecAG GAcd | ecAG GAce | dAcA d4 :|
P:B Harmony 2
M:4/4
L:1/8
K:D
|:dAAF DFAd | cAAG EGAc | cAAG EGAc| AGFA G2GA |
dAAF DFAd | cAAG EGAc| cAAG EGAc | AFGE F4 :|
